public/assests/icons/social-twtter.svg

<svg width="15" height="13" viewBox="0 0 15 13" fill="none" xmlns="http://www.w3.org/2000/svg">
<path d="M5.06263 12.5888C10.512 12.5888 13.4934 8.07298 13.4934 4.15802C13.4934 4.03107 13.4906 3.90129 13.485 3.77434C14.065 3.35491 14.5655 2.83539 14.963 2.24018C14.4229 2.4805 13.8494 2.63746 13.2621 2.70568C13.8804 2.33504 14.3434 1.75279 14.5652 1.06685C13.9835 1.41159 13.3474 1.65477 12.6841 1.78597C12.2371 1.31108 11.6462 0.996648 11.0026 0.891285C10.3591 0.785922 9.69872 0.895498 9.12368 1.20307C8.54864 1.51065 8.09093 1.99909 7.82133 2.59288C7.55173 3.18667 7.48525 3.85274 7.63216 4.4881C6.45431 4.42899 5.30204 4.12302 4.25003 3.59002C3.19802 3.05701 2.26976 2.30888 1.52543 1.39411C1.14713 2.04635 1.03137 2.81817 1.20168 3.5527C1.37198 4.28723 1.81558 4.92935 2.44232 5.34856C1.9718 5.33362 1.5116 5.20694 1.09972 4.97899V5.01566C1.0993 5.70014 1.33593 6.36364 1.76939 6.89338C2.20285 7.42312 2.80639 7.78641 3.47741 7.92148C3.04155 8.04073 2.5841 8.05811 2.14045 7.97226C2.3298 8.56092 2.69821 9.07577 3.19425 9.44497C3.69029 9.81417 4.28923 10.0193 4.90747 10.0317C3.85788 10.8562 2.56134 11.3034 1.22667 11.3013C0.989978 11.3009 0.753517 11.2864 0.518555 11.2578C1.87444 12.1277 3.4517 12.5897 5.06263 12.5888Z" fill="white"/>
</svg>

<svg width="15" height="13" fill="none" xmlns="http://www.w3.org/2000/svg"><path d="M5.0626 12.5888c5.4494 0 8.4308-4.5158 8.4308-8.4308 0-.127-.0028-.2567-.0084-.3837a6.0175 6.0175 0 0 0 1.478-1.5341 5.8421 5.8421 0 0 1-1.7009.4655 2.9796 2.9796 0 0 0 1.3031-1.6389 5.9566 5.9566 0 0 1-1.8811.7192 2.9676 2.9676 0 0 0-4.8628.8069 2.9673 2.9673 0 0 0-.1891 1.8952 8.4168 8.4168 0 0 1-6.1068-3.094 2.9668 2.9668 0 0 0 .917 3.9545 2.9671 2.9671 0 0 1-1.3427-.3696v.0367a2.9622 2.9622 0 0 0 2.3777 2.9058 2.9456 2.9456 0 0 1-1.337.0508 2.9693 2.9693 0 0 0 2.767 2.0594 5.9434 5.9434 0 0 1-4.3888 1.2261 8.4064 8.4064 0 0 0 4.544 1.331Z" fill="#fff"/></svg>
